X: 80
T: THE BRAVE VOLUNTEERS
B: O'Neill's 80
M: 2/4
L: 1/8
Z: Transcribed by John Chambers <jc@trillian.mit.edu>
N: "Slow"
N: "Collected by F.O'Neill"
K:D
f>e \
| (dB A).F | (A>B d).e | f2 (e{fe}d) | (B{cB}HA) (d>e) |
| (ea) (ab) | (af d>)e | f>f ({g}fe/d/) | He2 de |
| (fa) (ab) | (Taf) de | Tf2 e{fe}d | BA HzA |
| Bc dB | AB de | f2 (d/f/)e | d2 ||


